svg/set/MP2/T.svg

<?xml version="1.0" encoding="UTF-8" standalone="no"?>
<svg
   version="1.1"
   viewBox="0 0 26.29362 24.432767"
   height="92.344307"
   width="99.377464"
   id="svg6"
   xmlns:xlink="http://www.w3.org/1999/xlink"
   xmlns="http://www.w3.org/2000/svg"
   xmlns:svg="http://www.w3.org/2000/svg">
  <defs
     id="defs6">
    <linearGradient
       xlink:href="#SpecialGradient-0"
       id="linearGradient6"
       gradientUnits="userSpaceOnUse"
       x1="-1.9932064"
       y1="13.276038"
       x2="27.174629"
       y2="23.839092" />
    <linearGradient
       xlink:href="#SpecialGradient-0"
       id="linearGradient7"
       gradientUnits="userSpaceOnUse"
       x1="-1.9932064"
       y1="13.276038"
       x2="27.174629"
       y2="23.839092" />
  </defs>
  <linearGradient
     id="SpecialGradient-0">
    <stop
       style="stop-color:#612c75"
       offset="0"
       id="stop1" />
    <stop
       style="stop-color:#7b5190"
       offset="0.3"
       id="stop2" />
    <stop
       style="stop-color:#bf99c3"
       offset="0.5"
       id="stop3" />
    <stop
       style="stop-color:#7b5190"
       offset="0.7"
       id="stop4" />
    <stop
       style="stop-color:#612c75"
       offset="1"
       id="stop5" />
  </linearGradient>
  <linearGradient
     gradientUnits="userSpaceOnUse"
     y2="23.839092"
     x2="27.174629"
     y1="13.276038"
     x1="-1.9932064"
     id="linearGradient8509"
     xlink:href="#SpecialGradient-0" />
  <g
     transform="translate(-0.08235575,-1.8235002)"
     id="layer3">
    <g
       style="fill:url(#linearGradient8509);stroke:#ffffff;stroke-width:0.79375;stroke-miterlimit:10"
       id="g5">
      <path
         d="m 13.229167,20.509212 -3.000187,-8.607686 -4.4884666,-1.6064 1.5638765,-6.9677543 -6.59095984,7.8512753 6.49174104,3.156101 1.0158111,7.9375 5.0081848,3.499837 5.008185,-3.499837 1.015811,-7.9375 6.491741,-3.156101 -6.59096,-7.8512753 1.563877,6.9677543 -4.488467,1.6064 z"
         id="path5"
         style="fill:url(#linearGradient6)" />
      <circle
         cx="13.357933"
         cy="7.4990401"
         r="2.3647134"
         id="circle5"
         style="fill:url(#linearGradient7)" />
    </g>
  </g>
  <g
     transform="translate(-0.08235575,-1.8235002)"
     style="display:none"
     id="layer2">
    <path
       d="m 7.4167293,272.01028 -3.8754082,8.41899 4.8108515,2.47225 2.5056514,8.1016 c 0.603684,1.95191 4.224555,1.98129 4.75755,0.0262 l 2.224867,-8.16118 5.412208,-2.47225 -4.476765,-8.55262"
       style="stroke:#ffffff;stroke-width:0.264583px"
       transform="translate(0,-270.54164)"
       id="path6" />
  </g>
</svg>

<?xml version="1.0" encoding="UTF-8" standalone="no"?>
<svg xmlns="http://www.w3.org/2000/svg" xmlns:xlink="http://www.w3.org/1999/xlink" version="1.1" viewBox="0 0 26.458333 25.135419" height="95" width="100">
  <linearGradient id="SpecialGradient-0">
    <stop style="stop-color:#612c75" offset="0"/>
    <stop style="stop-color:#7b5190" offset="0.3"/>
    <stop style="stop-color:#bf99c3" offset="0.5"/>
    <stop style="stop-color:#7b5190" offset="0.7"/>
    <stop style="stop-color:#612c75" offset="1"/>
  </linearGradient>
  <linearGradient gradientUnits="userSpaceOnUse" y2="23.839092" x2="27.174629" y1="13.276038" x1="-1.9932064" id="linearGradient8509" xlink:href="#SpecialGradient-0"/>
  <g transform="translate(0,-1.3229167)" id="layer3">
    <g style="fill:url(#linearGradient8509);stroke:#ffffff;stroke-width:0.79375003;stroke-miterlimit:10">
      <path d="M 13.229167,20.509212 10.22898,11.901526 5.7405134,10.295126 7.3043899,3.3273717 0.71343006,11.178647 7.2051711,14.334748 8.2209822,22.272248 13.229167,25.772085 18.237352,22.272248 19.253163,14.334748 25.744904,11.178647 19.153944,3.3273717 20.717821,10.295126 16.229354,11.901526 Z"/>
      <circle cx="13.357933" cy="7.4990401" r="2.3647134"/>
    </g>
  </g>
  <g transform="translate(0,-1.3229167)" style="display:none" id="layer2">
    <path d="M 7.4167293,272.01028 3.5413211,280.42927 8.3521726,282.90152 10.857824,291.00312 C 11.461508,292.95503 15.082379,292.98441 15.615374,291.02929 L 17.840241,282.86811 23.252449,280.39586 18.775684,271.84324" style="stroke:#ffffff;stroke-width:0.26458332px" transform="translate(0,-270.54164)"/>
  </g>
</svg>
